offer/images/strategy.svg

<svg height="59" viewBox="0 0 51 59" width="51" xmlns="http://www.w3.org/2000/svg"><g fill="none" fill-rule="evenodd"><path d="m8.00440136 51.9675293h-.00880272s0 .1461182.00880272 0z" stroke="#000" stroke-linecap="round" stroke-linejoin="round" stroke-width="15"/><path d="m29.7240073 3.34332642c-4.9117421-2.19269951-10.3457487-1.10948371-11.5726977-.81964664-.1284831.03027483-.1907514.17764208-.1245365.29339881l1.7110631 2.99676359c20.0499584 3.83689021 13.2210538 32.18615782 13.2210538 32.18615782s3.2467226-3.9980593 6.704368-3.1548161c2.5850119.6299838 6.4360002-24.1931558-9.9392507-31.50185748z" fill="#aebcc4"/><path d="m36.8638798 51.4915386c-4.0918404-2.7263036-4.0517075-6.7284199-4.0517075-6.7284199v-6.0513768s12.5810498-19.0664362-5.869344-32.90800985l-2.9176263-5.47206489c-.109179-.20430699-.3184747-.33166716-.5458951-.33166716h-.6175305c-.3538609 0-.6360865.30159589-.6218458.6637764l.2071381 5.13995565s-5.1762945.78804097-6.0725983 2.15406729c-4.2290693 6.44760846-7.9152643 9.30702106-9.42780387 10.30158006-.46735534.3073449-.77374704.8145745-.83718311 1.3801775l-.42376995 3.7867538c-.05825762.5196118.36292316.9636034.8712745.918939l1.91645884-.1689291c.40952935-.0362623.78022014.2489714.86091772.6620075l.08328685.4254183c.07336135.3772161.39097309.6527209.76597932.6646609l2.2077468.0725245c.3003502.0097289.5804182-.1516824.7284356-.4196694.7133319-1.2908484 3.0186062-4.9807554 5.8818587-4.6097305 2.2595314.2923093 3.4449654 1.7949823 3.4449654 1.7949823s-14.35769038 9.7841796-14.35769038 18.7661669v3.2304376s.37500622 3.0973285-3.08894682 6.7589333v4.477948h32l-.0001859-4.477948z" fill="#4f6877"/><path d="m37.8616682 51.4915386c-4.1583225-2.7263036-4.1175375-6.7284199-4.1175375-6.7284199v-6.0513768s12.7854601-19.0664362-5.964706-32.90800985l-2.9650303-5.47206489c-.1109529-.20430699-.3236492-.33166716-.5547646-.33166716h-.6275638c-.3591717 0-.6464213.30159589-.6315106.6637764l.210065 5.13995565c14.0875121 7.46339415 8.9713986 23.27020605 6.0225945 29.89160815-.9845426 2.211114-1.4985222 4.604866-1.4985222 7.0286891v2.0390894s-.040785 4.0021163 4.1175373 6.7284199l.1385816.0305134v4.477948h6.0089994v-4.477948z" fill="#3c5666"/><path d="m40 55h-38l1.57039532-3.8581228c.28050536-.6888907.97111398-1.1418772 1.74043804-1.1418772h31.37876814c.7688892 0 1.4594978.4529865 1.7400032 1.1418772z" fill="#cdd6df"/><path d="m40.0662365 57h-38.13247304c-1.06816579 0-1.93376346-.8952467-1.93376346-2 0-1.1043027.86559767-2 1.93376346-2h38.13247304c1.0681658 0 1.9337635.8956973 1.9337635 2 0 1.1047533-.8655977 2-1.9337635 2z" fill="#3c5666"/><path d="m32.3871273 45h-24.77425461c-.89080592 0-1.61287269-.8953798-1.61287269-2.0000001 0-1.1040892.72206677-1.9999999 1.61287269-1.9999999h24.77425461c.8908059 0 1.6128727.8953796 1.6128727 1.9999999s-.7220668 2.0000001-1.6128727 2.0000001z" fill="#cdd6df"/><path d="m27 45h5.4970353c.8301026 0 1.5029647-.8953798 1.5029647-2.0000001s-.6728621-1.9999999-1.5029647-1.9999999h-5.4970353z" fill="#aebcc4"/><path d="m16.9514189 14c-.5252525 0-.9514189-.4256854-.9514189-.951419 0-.5252524.4261664-.9514189.9514189-.9514189.6320347 0 1.1457432-.5137085 1.1457432-1.1457432 0-.5257335.4261664-.9514189.9514189-.9514189.5257335 0 .951419.4256854.951419.9514189 0 1.6810967-1.3674844 3.0485811-3.0485811 3.0485811z" fill="#cdd6df"/><path d="m51 45.5c0 6.3511756-5.1488243 11.5-11.4999999 11.5s-11.5000001-5.1488244-11.5000001-11.5 5.1488245-11.5 11.5000001-11.5 11.4999999 5.1488244 11.4999999 11.5z" fill="#ee5646"/><path d="m39.8971558 34c-1.0023193 0-1.9734497.1385116-2.8971558.3965059 4.7266236 1.3200639 8.2052613 5.7904915 8.2052613 11.1034941 0 5.3130027-3.4786377 9.7838727-8.2052613 11.1039366.9237061.2575519 1.8948365.3960634 2.8971558.3960634 6.131836 0 11.1028442-5.1483818 11.1028442-11.5 0-6.3511756-4.9710082-11.5-11.1028442-11.5z" fill="#d83e3a"/><path d="m48 46.4999999c0 4.6945251-3.8058229 8.5000001-8.5002241 8.5000001-4.6944013 0-8.4997759-3.805475-8.4997759-8.5000001 0-4.6945249 3.8053746-8.4999999 8.4997759-8.4999999 4.6944012 0 8.5002241 3.805475 8.5002241 8.4999999z" fill="#fcea68"/><path d="m40.2212062 38c-1.1376316 0-2.2234055.2116145-3.2212062.5931483 3.2536173 1.2441321 5.5571247 4.3138879 5.5571247 7.9068516 0 3.5929639-2.3035074 6.6627196-5.5571247 7.9068517.9973377.3815339 2.0835746.5931484 3.2212062.5931484 4.8482463 0 8.7787938-3.805475 8.7787938-8.5000001 0-4.6945249-3.9305475-8.4999999-8.7787938-8.4999999z" fill="#fed066"/><path d="m39.7795993 50.2749864c-1.6571039-.0265138-2.7795993-.9252379-2.7795993-1.5825956 0-.3218219.28051-.7647842.6147542-.7647842.4412568 0 .8019125.938952 2.1648451 1.0463784v-3.1523917c-1.2026412-.4292482-2.5391621-.911981-2.5391621-2.6289739 0-1.6904792 1.269581-2.3610939 2.5391621-2.495034v-.3890205c0-.1609109.1602914-.3085649.3875228-.3085649.2003643 0 .4007286.147654.4007286.3085649v.3620496c.9089253.0269709 2.1917121.3085651 2.1917121.9659229 0 .2550804-.1871583.7647841-.5878869.7647841-.3210384 0-.6684883-.4292483-1.6038252-.4964468v2.7231434c1.1625682.4292483 2.4321493 1.0194073 2.4321493 2.8438266 0 1.6497942-.989071 2.5622324-2.4321493 2.7633711v.4557619c0 .160911-.2003643.3090223-.4007286.3090223-.2272314 0-.3875228-.1481113-.3875228-.3090223zm.0801457-5.9020488v-2.4410921c-.7481784.0937124-1.2827869.4292483-1.2827869 1.1268337 0 .764327.5746813 1.0459211 1.2827869 1.3142584zm.6279599 1.7439638v2.8301127c.7217669-.1339401 1.1757741-.5631883 1.1757741-1.3279725 0-.8447825-.5209472-1.220546-1.1757741-1.5021402z" fill="#4f6877" fill-rule="nonzero"/></g></svg>

<?xml version="1.0" encoding="UTF-8"?>
<svg width="51px" height="59px" viewBox="0 0 51 59" version="1.1" xmlns="http://www.w3.org/2000/svg" xmlns:xlink="http://www.w3.org/1999/xlink">
    <!-- Generator: Sketch 52.2 (67145) - http://www.bohemiancoding.com/sketch -->
    <title>strategy (1)</title>
    <desc>Created with Sketch.</desc>
    <g id="Page-1" stroke="none" stroke-width="1" fill="none" fill-rule="evenodd">
        <g id="offer" transform="translate(-497.000000, -7727.000000)">
            <g id="strategy-(1)" transform="translate(497.000000, 7727.000000)">
                <path d="M8.00440136,51.9675293 L7.99559864,51.9675293 C7.99559864,51.9675293 7.99559864,52.1136475 8.00440136,51.9675293 Z" id="Path" stroke="#000000" stroke-width="15" stroke-linecap="round" stroke-linejoin="round"></path>
                <path d="M29.7240073,3.34332642 C24.8122652,1.15062691 19.3782586,2.23384271 18.1513096,2.52367978 C18.0228265,2.55395461 17.9605582,2.70132186 18.0267731,2.81707859 L19.7378362,5.81384218 C39.7877946,9.65073239 32.95889,38 32.95889,38 C32.95889,38 36.2056126,34.0019407 39.663258,34.8451839 C42.2482699,35.4751677 46.0992582,10.6520281 29.7240073,3.34332642 Z" id="Path" fill="#AEBCC4"></path>
                <path d="M36.8638798,51.4915386 C32.7720394,48.765235 32.8121723,44.7631187 32.8121723,44.7631187 L32.8121723,38.7117419 C32.8121723,38.7117419 45.3932221,19.6453057 26.9428283,5.80373205 L24.025202,0.331667158 C23.916023,0.127360167 23.7067273,0 23.4793069,0 L22.8617764,0 C22.5079155,0 22.2256899,0.301595894 22.2399306,0.663776397 L22.4470687,5.80373205 C22.4470687,5.80373205 17.2707742,6.59177302 16.3744704,7.95779934 C12.1454011,14.4054078 8.4592061,17.2648204 6.94666653,18.2593794 C6.47931119,18.5667243 6.17291949,19.0739539 6.10948342,19.6395569 L5.68571347,23.4263107 C5.62745585,23.9459225 6.04863663,24.3899141 6.55698797,24.3452497 L8.47344681,24.1763206 C8.88297616,24.1400583 9.25366695,24.425292 9.33436453,24.8383281 L9.41765138,25.2637464 C9.49101273,25.6409625 9.80862447,25.9164673 10.1836307,25.9284073 L12.3913775,26.0009318 C12.6917277,26.0106607 12.9717957,25.8492494 13.1198131,25.5812624 C13.833145,24.290414 16.1384193,20.600507 19.0016718,20.9715319 C21.2612032,21.2638412 22.4466372,22.7665142 22.4466372,22.7665142 C22.4466372,22.7665142 8.08894682,32.5506938 8.08894682,41.5326811 C8.08894682,42.7514471 8.08894682,43.8225107 8.08894682,44.7631187 C8.08894682,44.7631187 8.46395304,47.8604472 5,51.522052 L5,56 L37,56 L36.9998141,51.522052 L36.8638798,51.4915386 Z" id="Path" fill="#4F6877"></path>
                <path d="M37.8616682,51.4915386 C33.7033457,48.765235 33.7441307,44.7631187 33.7441307,44.7631187 L33.7441307,38.7117419 C33.7441307,38.7117419 46.5295908,19.6453057 27.7794247,5.80373205 L24.8143944,0.331667158 C24.7034415,0.127360167 24.4907452,0 24.2596298,0 L23.632066,0 C23.2728943,0 22.9856447,0.301595894 23.0005554,0.663776397 L23.2106204,5.80373205 C37.2981325,13.2671262 32.182019,29.0739381 29.2332149,35.6953402 C28.2486723,37.9064542 27.7346927,40.3002062 27.7346927,42.7240293 L27.7346927,44.7631187 C27.7346927,44.7631187 27.6939077,48.765235 31.85223,51.4915386 L31.9908116,51.522052 L31.9908116,56 L37.999811,56 L37.999811,51.522052 L37.8616682,51.4915386 Z" id="Path" fill="#3C5666"></path>
                <path d="M40,55 L2,55 L3.57039532,51.1418772 C3.85090068,50.4529865 4.5415093,50 5.31083336,50 L36.6896015,50 C37.4584907,50 38.1490993,50.4529865 38.4296047,51.1418772 L40,55 Z" id="Path" fill="#CDD6DF"></path>
                <path d="M40.0662365,57 L1.93376346,57 C0.865597671,57 0,56.1047533 0,55 C0,53.8956973 0.865597671,53 1.93376346,53 L40.0662365,53 C41.1344023,53 42,53.8956973 42,55 C42,56.1047533 41.1344023,57 40.0662365,57 Z" id="Path" fill="#3C5666"></path>
                <path d="M32.3871273,45 L7.61287269,45 C6.72206677,45 6,44.1046202 6,42.9999999 C6,41.8959107 6.72206677,41 7.61287269,41 L32.3871273,41 C33.2779332,41 34,41.8953796 34,42.9999999 C34,44.1046202 33.2779332,45 32.3871273,45 Z" id="Path" fill="#CDD6DF"></path>
                <path d="M27,45 L32.4970353,45 C33.3271379,45 34,44.1046202 34,42.9999999 C34,41.8953796 33.3271379,41 32.4970353,41 L27,41 L27,45 Z" id="Path" fill="#AEBCC4"></path>
                <path d="M16.9514189,14 C16.4261664,14 16,13.5743146 16,13.048581 C16,12.5233286 16.4261664,12.0971621 16.9514189,12.0971621 C17.5834536,12.0971621 18.0971621,11.5834536 18.0971621,10.9514189 C18.0971621,10.4256854 18.5233285,10 19.048581,10 C19.5743145,10 20,10.4256854 20,10.9514189 C20,12.6325156 18.6325156,14 16.9514189,14 Z" id="Path" fill="#CDD6DF"></path>
                <path d="M51,45.5 C51,51.8511756 45.8511757,57 39.5000001,57 C33.1488245,57 28,51.8511756 28,45.5 C28,39.1488244 33.1488245,34 39.5000001,34 C45.8511757,34 51,39.1488244 51,45.5 Z" id="Path" fill="#EE5646"></path>
                <path d="M39.8971558,34 C38.8948365,34 37.9237061,34.1385116 37,34.3965059 C41.7266236,35.7165698 45.2052613,40.1869974 45.2052613,45.5 C45.2052613,50.8130027 41.7266236,55.2838727 37,56.6039366 C37.9237061,56.8614885 38.8948365,57 39.8971558,57 C46.0289918,57 51,51.8516182 51,45.5 C51,39.1488244 46.0289918,34 39.8971558,34 Z" id="Path" fill="#D83E3A"></path>
                <path d="M48,46.4999999 C48,51.194525 44.1941771,55 39.4997759,55 C34.8053746,55 31,51.194525 31,46.4999999 C31,41.805475 34.8053746,38 39.4997759,38 C44.1941771,38 48,41.805475 48,46.4999999 Z" id="Path" fill="#FCEA68"></path>
                <path d="M40.2212062,38 C39.0835746,38 37.9978007,38.2116145 37,38.5931483 C40.2536173,39.8372804 42.5571247,42.9070362 42.5571247,46.4999999 C42.5571247,50.0929638 40.2536173,53.1627195 37,54.4068516 C37.9973377,54.7883855 39.0835746,55 40.2212062,55 C45.0694525,55 49,51.194525 49,46.4999999 C49,41.805475 45.0694525,38 40.2212062,38 Z" id="Path" fill="#FED066"></path>
                <path d="M39.7795993,50.2749864 C38.1224954,50.2484726 37,49.3497485 37,48.6923908 C37,48.3705689 37.28051,47.9276066 37.6147542,47.9276066 C38.056011,47.9276066 38.4166667,48.8665586 39.7795993,48.973985 L39.7795993,45.8215933 C38.5769581,45.3923451 37.2404372,44.9096123 37.2404372,43.1926194 C37.2404372,41.5021402 38.5100182,40.8315255 39.7795993,40.6975854 L39.7795993,40.3085649 C39.7795993,40.147654 39.9398907,40 40.1671221,40 C40.3674864,40 40.5678507,40.147654 40.5678507,40.3085649 L40.5678507,40.6706145 C41.476776,40.6975854 42.7595628,40.9791796 42.7595628,41.6365374 C42.7595628,41.8916178 42.5724045,42.4013215 42.1716759,42.4013215 C41.8506375,42.4013215 41.5031876,41.9720732 40.5678507,41.9048747 L40.5678507,44.6280181 C41.7304189,45.0572664 43,45.6474254 43,47.4718447 C43,49.1216389 42.010929,50.0340771 40.5678507,50.2352158 L40.5678507,50.6909777 C40.5678507,50.8518887 40.3674864,51 40.1671221,51 C39.9398907,51 39.7795993,50.8518887 39.7795993,50.6909777 L39.7795993,50.2749864 Z M39.859745,44.3729376 L39.859745,41.9318455 C39.1115666,42.0255579 38.5769581,42.3610938 38.5769581,43.0586792 C38.5769581,43.8230062 39.1516394,44.1046003 39.859745,44.3729376 Z M40.4877049,46.1169014 L40.4877049,48.9470141 C41.2094718,48.813074 41.663479,48.3838258 41.663479,47.6190416 C41.663479,46.7742591 41.1425318,46.3984956 40.4877049,46.1169014 Z" id="Shape" fill="#4F6877" fill-rule="nonzero"></path>
            </g>
        </g>
    </g>
</svg>
